src/images/single-assets/dgnETH.svg

<svg width="20" height="21" viewBox="0 0 20 21" fill="none" xmlns="http://www.w3.org/2000/svg">
    <circle cx="10" cy="10.5" r="10" fill="#B090EF"/>
    <path d="M10.8662 14.2697L14.1304 12.2765C14.3125 12.167 14.5168 12.3801 14.3997 12.5574L11.2448 17.6524C10.7742 18.3655 9.72966 18.3703 9.25247 17.6617L6.01842 12.5537C5.89973 12.3774 6.10213 12.1624 6.28522 12.2703L9.64174 14.2751C10.02 14.498 10.4899 14.4959 10.8662 14.2697Z"
          fill="white"/>
    <path fill-rule="evenodd" clip-rule="evenodd"
          d="M5.75859 12.7224C5.46176 12.2733 5.97661 11.7289 6.44249 12.0033L6.44412 12.0043L9.79976 14.0086C10.0797 14.1732 10.4272 14.1716 10.7057 14.0047C10.706 14.0045 10.7063 14.0043 10.7066 14.0041L13.9708 12.0109C14.4341 11.7324 14.9537 12.2719 14.6612 12.7236L11.5082 17.8155C11.5067 17.818 11.5051 17.8206 11.5034 17.823C10.911 18.7206 9.59618 18.7267 8.99551 17.8347C8.99388 17.8323 8.99229 17.8298 8.99073 17.8274L5.75859 12.7224ZM6.52482 12.7742L9.51176 17.4919C9.86571 18.0127 10.6348 18.0091 10.9839 17.4852L13.8958 12.7827L11.0258 14.5353C10.5522 14.8199 9.96067 14.8225 9.48451 14.5421L9.48289 14.5411L6.52482 12.7742Z"
          fill="black"/>
    <path fill-rule="evenodd" clip-rule="evenodd"
          d="M10.598 2.70001L12.3466 5.73809C12.6497 6.26478 13.3125 6.44379 13.9202 6.44379C15.2391 6.44379 16.3397 7.45433 16.3397 8.73851C16.3397 9.62567 15.8144 10.3822 15.0548 10.7652C15.046 10.7729 15.0364 10.7799 15.026 10.7862L10.8658 13.2844C10.4897 13.5103 10.0202 13.5124 9.64215 13.2898L5.38873 10.7864C5.38199 10.7825 5.37556 10.7782 5.36947 10.7736C4.60088 10.3933 4.06793 9.63213 4.06793 8.7385C4.06793 7.45433 5.1685 6.44379 6.48736 6.44379C7.11831 6.44379 7.81119 6.2676 8.13069 5.72352L9.90798 2.69699C10.063 2.433 10.4453 2.43467 10.598 2.70001ZM7.26211 7.20262C7.02832 7.10008 6.7662 7.04241 6.48736 7.04241C5.4644 7.04241 4.66655 7.81861 4.66655 8.7385C4.66655 9.33506 5.0021 9.87119 5.51698 10.1744L7.26211 7.20262ZM13.1808 7.18756L14.8975 10.1703C15.4085 9.86638 15.7411 9.33239 15.7411 8.73851C15.7411 7.81861 14.9432 7.04241 13.9202 7.04241C13.6554 7.04241 13.4056 7.09445 13.1808 7.18756Z"
          fill="black"/>
    <path d="M16.0403 8.73851C16.0403 9.84054 15.0911 10.7339 13.9202 10.7339C12.7493 10.7339 11.8001 9.84054 11.8001 8.73851C11.8001 7.63648 12.7493 6.7431 13.9202 6.7431C15.0911 6.7431 16.0403 7.63648 16.0403 8.73851Z"
          fill="white"/>
    <path fill-rule="evenodd" clip-rule="evenodd"
          d="M13.9202 7.04241C12.8973 7.04241 12.0994 7.81861 12.0994 8.7385C12.0994 9.65839 12.8973 10.4346 13.9202 10.4346C14.9432 10.4346 15.741 9.65839 15.741 8.7385C15.741 7.81861 14.9432 7.04241 13.9202 7.04241ZM11.5008 8.7385C11.5008 7.45433 12.6014 6.44379 13.9202 6.44379C15.2391 6.44379 16.3397 7.45433 16.3397 8.7385C16.3397 10.0227 15.2391 11.0332 13.9202 11.0332C12.6014 11.0332 11.5008 10.0227 11.5008 8.7385Z"
          fill="black"/>
    <path d="M8.60749 8.73851C8.60749 9.84054 7.65828 10.7339 6.48737 10.7339C5.31646 10.7339 4.36725 9.84054 4.36725 8.73851C4.36725 7.63648 5.31646 6.7431 6.48737 6.7431C7.65828 6.7431 8.60749 7.63648 8.60749 8.73851Z"
          fill="white"/>
    <path fill-rule="evenodd" clip-rule="evenodd"
          d="M6.48736 7.04241C5.4644 7.04241 4.66655 7.81861 4.66655 8.7385C4.66655 9.65839 5.4644 10.4346 6.48736 10.4346C7.51032 10.4346 8.30817 9.65839 8.30817 8.7385C8.30817 7.81861 7.51032 7.04241 6.48736 7.04241ZM4.06793 8.7385C4.06793 7.45433 5.1685 6.44379 6.48736 6.44379C7.80622 6.44379 8.90679 7.45433 8.90679 8.7385C8.90679 10.0227 7.80622 11.0332 6.48736 11.0332C5.1685 11.0332 4.06793 10.0227 4.06793 8.7385Z"
          fill="black"/>
    <path fill-rule="evenodd" clip-rule="evenodd"
          d="M13.129 8.88996C13.1289 8.88994 13.1302 8.88883 13.1336 8.88666C13.1309 8.88889 13.1292 8.88997 13.129 8.88996ZM14.7069 8.88666C14.7102 8.88883 14.7116 8.88994 14.7114 8.88996C14.7113 8.88997 14.7096 8.88889 14.7069 8.88666ZM14.7069 8.59039C14.7096 8.58816 14.7113 8.58708 14.7114 8.58709C14.7116 8.58711 14.7102 8.58822 14.7069 8.59039ZM13.1336 8.59039C13.1302 8.58822 13.1289 8.58711 13.129 8.58709C13.1292 8.58708 13.1309 8.58816 13.1336 8.59039ZM13.1184 8.25621C13.3356 8.19836 13.6189 8.16614 13.9202 8.16614C14.2215 8.16614 14.5049 8.19836 14.722 8.25621C14.8284 8.28455 14.936 8.32347 15.0241 8.37898C15.0972 8.42502 15.2445 8.53896 15.2445 8.73853C15.2445 8.93809 15.0972 9.05203 15.0241 9.09807C14.936 9.15358 14.8284 9.1925 14.722 9.22084C14.5049 9.27869 14.2215 9.31091 13.9202 9.31091C13.6189 9.31091 13.3356 9.27869 13.1184 9.22084C13.0121 9.1925 12.9045 9.15358 12.8163 9.09807C12.7432 9.05203 12.596 8.93809 12.596 8.73853C12.596 8.53896 12.7432 8.42502 12.8163 8.37898C12.9045 8.32347 13.0121 8.28455 13.1184 8.25621Z"
          fill="black"/>
    <path fill-rule="evenodd" clip-rule="evenodd"
          d="M5.69618 8.88996C5.69602 8.88994 5.69737 8.88883 5.70069 8.88666C5.69799 8.88889 5.69633 8.88997 5.69618 8.88996ZM7.27405 8.88666C7.27737 8.88883 7.27872 8.88994 7.27857 8.88996C7.27841 8.88997 7.27675 8.88889 7.27405 8.88666ZM7.27405 8.59039C7.27675 8.58816 7.27841 8.58708 7.27857 8.58709C7.27872 8.58711 7.27737 8.58822 7.27405 8.59039ZM5.70069 8.59039C5.69737 8.58822 5.69602 8.58711 5.69618 8.58709C5.69633 8.58708 5.69799 8.58816 5.70069 8.59039ZM5.68559 8.25621C5.90271 8.19836 6.18606 8.16614 6.48737 8.16614C6.78868 8.16614 7.07203 8.19836 7.28915 8.25621C7.39552 8.28455 7.50315 8.32347 7.59127 8.37898C7.66436 8.42502 7.81159 8.53896 7.81159 8.73853C7.81159 8.93809 7.66436 9.05203 7.59127 9.09807C7.50315 9.15358 7.39552 9.1925 7.28915 9.22084C7.07203 9.27869 6.78868 9.31091 6.48737 9.31091C6.18606 9.31091 5.90271 9.27869 5.68559 9.22084C5.57922 9.1925 5.47159 9.15358 5.38347 9.09807C5.31038 9.05203 5.16315 8.93809 5.16315 8.73853C5.16315 8.53896 5.31038 8.42502 5.38347 8.37898C5.47159 8.32347 5.57922 8.28455 5.68559 8.25621Z"
          fill="black"/>
</svg>

<svg xmlns="http://www.w3.org/2000/svg" width="20" height="21" fill="none"><circle cx="10" cy="10.5" r="10" fill="#B090EF"/><path fill="#fff" d="m10.866 14.27 3.264-1.993c.182-.11.387.103.27.28l-3.155 5.095a1.197 1.197 0 0 1-1.993.01l-3.234-5.108c-.118-.177.084-.392.267-.284l3.357 2.005c.378.223.848.22 1.224-.005"/><path fill="#000" fill-rule="evenodd" d="M5.759 12.722c-.297-.449.218-.993.683-.719l.002.001L9.8 14.01c.28.164.627.163.906-.004l3.265-1.994c.463-.279.983.26.69.713l-3.153 5.092-.005.007a1.507 1.507 0 0 1-2.507.012l-.005-.008zm.766.052 2.987 4.718a.887.887 0 0 0 1.472-.007l2.912-4.702-2.87 1.752a1.51 1.51 0 0 1-1.541.007h-.002z" clip-rule="evenodd"/><path fill="#000" fill-rule="evenodd" d="m10.598 2.7 1.749 3.038c.303.527.966.706 1.573.706 1.32 0 2.42 1.01 2.42 2.295 0 .887-.526 1.643-1.285 2.026l-.029.021-4.16 2.498a1.2 1.2 0 0 1-1.224.006L5.39 10.786l-.02-.012c-.768-.38-1.301-1.142-1.301-2.035 0-1.285 1.1-2.295 2.42-2.295.63 0 1.323-.176 1.643-.72l1.777-3.027a.4.4 0 0 1 .69.003M7.262 7.203a1.9 1.9 0 0 0-.775-.16c-1.023 0-1.82.776-1.82 1.696 0 .596.335 1.132.85 1.435zm5.919-.015 1.717 2.982c.51-.304.843-.838.843-1.431 0-.92-.798-1.697-1.82-1.697-.266 0-.515.052-.74.146" clip-rule="evenodd"/><path fill="#fff" d="M16.04 8.739c0 1.102-.949 1.995-2.12 1.995-1.17 0-2.12-.893-2.12-1.995s.95-1.996 2.12-1.996 2.12.893 2.12 1.996"/><path fill="#000" fill-rule="evenodd" d="M13.92 7.042c-1.023 0-1.82.777-1.82 1.697s.797 1.696 1.82 1.696 1.821-.777 1.821-1.697-.798-1.696-1.82-1.696M11.5 8.74c0-1.285 1.101-2.295 2.42-2.295 1.32 0 2.42 1.01 2.42 2.295s-1.1 2.294-2.42 2.294-2.42-1.01-2.42-2.294" clip-rule="evenodd"/><path fill="#fff" d="M8.607 8.739c0 1.102-.949 1.995-2.12 1.995-1.17 0-2.12-.893-2.12-1.995s.95-1.996 2.12-1.996 2.12.893 2.12 1.996"/><path fill="#000" fill-rule="evenodd" d="M6.487 7.042c-1.023 0-1.82.777-1.82 1.697s.797 1.696 1.82 1.696 1.821-.777 1.821-1.697-.798-1.696-1.82-1.696M4.067 8.74c0-1.285 1.101-2.295 2.42-2.295 1.32 0 2.42 1.01 2.42 2.295s-1.1 2.294-2.42 2.294-2.42-1.01-2.42-2.294M13.129 8.89l.005-.003zm1.578-.003.004.003zm0-.297.004-.003zm-1.573 0-.005-.003zm-.016-.334c.218-.058.5-.09.802-.09s.585.032.802.09c.106.029.214.067.302.123.073.046.22.16.22.36s-.147.313-.22.36a1.1 1.1 0 0 1-.302.122c-.217.058-.5.09-.802.09a3.2 3.2 0 0 1-.802-.09 1.1 1.1 0 0 1-.302-.123c-.073-.046-.22-.16-.22-.36s.147-.313.22-.359c.088-.056.196-.094.302-.123" clip-rule="evenodd"/><path fill="#000" fill-rule="evenodd" d="m5.696 8.89.005-.003zm1.578-.003.005.003zm0-.297.005-.003zm-1.573 0-.005-.003zm-.015-.334c.217-.058.5-.09.801-.09s.585.032.802.09c.107.029.214.067.302.123.073.046.22.16.22.36s-.147.313-.22.36a1.1 1.1 0 0 1-.302.122c-.217.058-.5.09-.802.09a3.2 3.2 0 0 1-.801-.09 1.1 1.1 0 0 1-.303-.123c-.073-.046-.22-.16-.22-.36s.147-.313.22-.359c.089-.056.196-.094.303-.123" clip-rule="evenodd"/></svg>
